X:474
T:Polska efter Pusten
T:"Höga Pusten"
R:Polska
N:Gammalpolska Rogsta
Z:Håkan Lidén, 2008-09-26
O:Hälsingland, Rogsta
S:efter Pusten, Jonas Persson Wiik
M:3/4
L:1/8
K:D
ef/^g/ a2 a2 | ef/^g/ a2 a2 | b2 af ge | ce/c/ dd A2 | ef/^g/ a2 a2 | 
ef/^g/ a2 a2 | b2 af ge | ce/c/ d4 ::[K:Ddor] e2 ^c2 c2 | ^cB/c/ d2 e2 |
f>e df ed | d^c/d/ ec A2 | e2 ^c2 c2 | ^cB/c/ d2 e2 | f>e df ed | ^c/d/e/c/ d4 :|]
(:musicend:)

(:music:)
